Core/Controls/Assets/button_color_b.svg

<svg width="64" height="64" xmlns="http://www.w3.org/2000/svg" xmlns:xlink="http://www.w3.org/1999/xlink">
  <defs/>
  <g>
    <path stroke="none" fill="#EF4E29" d="M56 32 Q56 42 48.95 48.95 42 56 32 56 22.05 56 15 48.95 8 42 8 32 8 22.05 15 15 22.05 8 32 8 42 8 48.95 15 56 22.05 56 32 M37 28 Q37 28.85 36.45 29.4 L36.4 29.4 Q35.8 30 35 30 L29 30 29 26 35 26 Q35.8 26 36.35 26.55 L36.45 26.65 Q37 27.2 37 28 M41 36 Q41 33.7 39.5 32 41 30.3 41 28 41 25.55 39.25 23.8 L39.2 23.75 Q37.45 22 35 22 L25 22 25 42 35 42 Q37.45 42 39.2 40.25 L39.25 40.2 Q41 38.45 41 36 M37 36 Q37 36.8 36.45 37.35 L36.35 37.45 Q35.8 38 35 38 L29 38 29 34 35 34 Q35.8 34 36.4 34.6 L36.45 34.6 Q37 35.15 37 36"/>
  </g>
</svg>

<?xml version="1.0" encoding="UTF-8"?>
<svg id="Layer_1" xmlns="http://www.w3.org/2000/svg" version="1.1" xmlns:xlink="http://www.w3.org/1999/xlink" viewBox="0 0 64 64">
  <!-- Generator: Adobe Illustrator 29.3.1, SVG Export Plug-In . SVG Version: 2.1.0 Build 151)  -->
  <defs>
    <style>
      .st0 {
        fill: #ef4e29;
        stroke: #fff;
        stroke-linecap: round;
        stroke-miterlimit: 10;
        stroke-width: .5px;
      }

      .st1 {
        fill: #fff;
      }
    </style>
  </defs>
  <circle class="st1" cx="32" cy="32" r="15.3"/>
  <path class="st0" d="M56,32c0,6.7-2.4,12.3-7,17-4.6,4.7-10.3,7-17,7s-12.3-2.4-17-7c-4.7-4.6-7-10.3-7-17s2.3-12.3,7-17c4.7-4.7,10.4-7,17-7s12.3,2.3,17,7c4.7,4.7,7,10.4,7,17M37,28c0,.6-.2,1-.5,1.4h0c-.4.4-.9.6-1.4.6h-6v-4h6c.5,0,1,.2,1.3.5h.1c.4.5.5.9.5,1.5M41,36c0-1.5-.5-2.9-1.5-4,1-1.1,1.5-2.5,1.5-4s-.6-3-1.8-4.2h0c-1.2-1.2-2.6-1.8-4.2-1.8h-10v20h10c1.6,0,3-.6,4.2-1.8h0c1.2-1.2,1.8-2.6,1.8-4.2M37,36c0,.5-.2,1-.5,1.3h-.1c-.4.5-.8.7-1.3.7h-6v-4h6c.5,0,1,.2,1.4.6h0c.4.4.5.8.5,1.4"/>
</svg>
